wolterwythe/images/instagram.svg

<svg width="28" height="28" viewBox="0 0 28 28" fill="none" xmlns="http://www.w3.org/2000/svg">
<path d="M13.9996 10.3555C11.9926 10.3555 10.3547 11.9934 10.3547 14.0004C10.3547 16.0075 11.9926 17.6453 13.9996 17.6453C16.0067 17.6453 17.6446 16.0075 17.6446 14.0004C17.6446 11.9934 16.0067 10.3555 13.9996 10.3555ZM24.9317 14.0004C24.9317 12.491 24.9453 10.9953 24.8606 9.4887C24.7758 7.7387 24.3766 6.18558 23.0969 4.90589C21.8145 3.62347 20.2641 3.22699 18.5141 3.14222C17.0047 3.05745 15.509 3.07113 14.0024 3.07113C12.493 3.07113 10.9973 3.05745 9.49066 3.14222C7.74066 3.22699 6.18753 3.6262 4.90784 4.90589C3.62542 6.18831 3.22894 7.7387 3.14417 9.4887C3.05941 10.9981 3.07308 12.4938 3.07308 14.0004C3.07308 15.5071 3.05941 17.0055 3.14417 18.5121C3.22894 20.2621 3.62816 21.8153 4.90784 23.095C6.19027 24.3774 7.74066 24.7739 9.49066 24.8586C11 24.9434 12.4957 24.9297 14.0024 24.9297C15.5118 24.9297 17.0075 24.9434 18.5141 24.8586C20.2641 24.7739 21.8172 24.3746 23.0969 23.095C24.3793 21.8125 24.7758 20.2621 24.8606 18.5121C24.9481 17.0055 24.9317 15.5098 24.9317 14.0004ZM13.9996 19.6086C10.8961 19.6086 8.39144 17.1039 8.39144 14.0004C8.39144 10.8969 10.8961 8.39222 13.9996 8.39222C17.1032 8.39222 19.6078 10.8969 19.6078 14.0004C19.6078 17.1039 17.1032 19.6086 13.9996 19.6086ZM19.8375 9.4723C19.1129 9.4723 18.5278 8.88714 18.5278 8.16253C18.5278 7.43792 19.1129 6.85277 19.8375 6.85277C20.5621 6.85277 21.1473 7.43792 21.1473 8.16253C21.1475 8.33459 21.1138 8.50501 21.048 8.66401C20.9823 8.82302 20.8858 8.96749 20.7642 9.08916C20.6425 9.21082 20.498 9.30729 20.339 9.37304C20.18 9.43878 20.0096 9.47251 19.8375 9.4723Z" fill="url(#paint0_linear_779_3156)"/>
<defs>
<linearGradient id="paint0_linear_779_3156" x1="3.07227" y1="14.0004" x2="25.1535" y2="14.0551" gradientUnits="userSpaceOnUse">
<stop stop-color="#4C27C1"/>
<stop offset="1" stop-color="#F761DF"/>
</linearGradient>
</defs>
</svg>

<svg width="28" height="28" viewBox="0 0 28 28" fill="none" xmlns="http://www.w3.org/2000/svg"><path d="M14 10.355A3.653 3.653 0 0010.355 14 3.653 3.653 0 0014 17.645 3.653 3.653 0 0017.645 14 3.653 3.653 0 0014 10.355zM24.932 14c0-1.509.013-3.005-.071-4.511-.085-1.75-.484-3.303-1.764-4.583-1.283-1.283-2.833-1.679-4.583-1.764-1.51-.085-3.005-.07-4.512-.07-1.509 0-3.005-.015-4.511.07-1.75.085-3.303.484-4.583 1.764-1.283 1.282-1.68 2.833-1.764 4.583-.085 1.51-.07 3.005-.07 4.511 0 1.507-.015 3.006.07 4.512.085 1.75.484 3.303 1.764 4.583 1.282 1.282 2.833 1.679 4.583 1.764 1.509.084 3.005.07 4.511.07 1.51 0 3.005.014 4.512-.07 1.75-.085 3.303-.484 4.583-1.764 1.282-1.282 1.679-2.833 1.764-4.583.087-1.506.07-3.002.07-4.512zM14 19.61A5.6 5.6 0 018.39 14 5.6 5.6 0 0114 8.392 5.6 5.6 0 0119.608 14 5.6 5.6 0 0114 19.61zm5.837-10.137c-.724 0-1.31-.585-1.31-1.31 0-.724.586-1.31 1.31-1.31a1.308 1.308 0 01.927 2.237 1.309 1.309 0 01-.927.383z" fill="url(#paint0_linear_779_3156)"/><defs><linearGradient id="paint0_linear_779_3156" x1="3.072" y1="14" x2="25.154" y2="14.055" gradientUnits="userSpaceOnUse"><stop stop-color="#4C27C1"/><stop offset="1" stop-color="#F761DF"/></linearGradient></defs></svg>
